X:5
T:C Minor
M:4/4
L:1/8
Q:180
K:Eb
|: ccgg g3g | agab g3g | ffff e2f2 | g2ga gfed :|
|: cccd e2f2 | gagf edc2 |1 feed dc=Bc | d2=B2 A2 G2 :|2 feed dcc=B | c2cd c=Bc2  
|: c=Bcd edef | gagf edc2 |1 feed dc=Bc | d2=B2 A2 G2 :|2 feed dcc=B | c3 z =B3 z | c6 z2 ||
